img/social/tg.svg

<svg width="61" height="60" viewBox="0 0 61 60" fill="none" xmlns="http://www.w3.org/2000/svg">
<rect x="0.933334" width="59.9333" height="59.9333" rx="29.9667" fill="black"/>
<path fill-rule="evenodd" clip-rule="evenodd" d="M43.8617 17.4998C43.8167 17.5163 43.4382 17.6661 43.0207 17.8329C42.6032 17.9995 42.2499 18.1238 42.2355 18.1091C42.2211 18.0944 42.1722 18.1203 42.1268 18.1668C42.0815 18.2133 42.0122 18.2387 41.973 18.2233C41.9337 18.2079 41.8938 18.2144 41.8844 18.2379C41.866 18.2834 41.3598 18.492 39.4901 19.2249C38.8439 19.4782 37.6304 19.956 36.7934 20.2866C35.9564 20.6173 35.2433 20.8927 35.2087 20.8987C35.174 20.9047 35.0965 20.937 35.0364 20.9703C34.8016 21.1006 34.1226 21.3231 34.0672 21.288C34.0298 21.2643 34.0248 21.2777 34.0534 21.325C34.0861 21.3793 34.0729 21.3894 34.0043 21.3623C33.9527 21.342 33.9238 21.3475 33.9401 21.3745C33.9563 21.4014 33.9269 21.4362 33.8746 21.4518C33.8223 21.4673 33.3263 21.6578 32.7723 21.875C32.2183 22.0922 31.7449 22.2572 31.7204 22.2416C31.6958 22.2261 31.6757 22.2376 31.6757 22.2672C31.6757 22.3338 31.3532 22.4539 31.2869 22.4119C31.2603 22.3951 31.2386 22.4041 31.2386 22.4319C31.2386 22.4598 30.802 22.654 30.2686 22.8635C29.7351 23.0731 29.1511 23.3054 28.9708 23.3798C28.7904 23.4542 28.483 23.5747 28.2877 23.6475C28.0923 23.7203 27.7481 23.8544 27.5226 23.9455C26.3681 24.4121 24.3726 25.1899 24.2997 25.2018C24.254 25.2091 24.2043 25.2303 24.1892 25.2486C24.1742 25.2669 23.8914 25.3886 23.5608 25.5191C23.2302 25.6496 22.6523 25.8791 22.2766 26.0291C21.9009 26.1791 21.1632 26.469 20.6373 26.6735C20.1113 26.8779 19.3687 27.1711 18.9871 27.325C18.5876 27.4862 18.2631 27.5871 18.2221 27.5628C18.1829 27.5397 18.1694 27.5417 18.192 27.5672C18.2146 27.5927 18.0091 27.7083 17.7352 27.824C17.2351 28.0354 16.976 28.2195 16.976 28.3635C16.976 28.4062 16.9568 28.4289 16.9334 28.4141C16.8429 28.3568 16.9536 29.0271 17.0587 29.1733C17.2034 29.3746 17.3448 29.4456 18.3571 29.8254C18.8312 30.0033 19.2 30.1702 19.1767 30.1964C19.1535 30.2226 19.1634 30.2271 19.1986 30.2064C19.253 30.1744 20.4855 30.6049 20.6602 30.7169C20.6926 30.7377 20.7493 30.7594 20.7862 30.7652C20.885 30.7805 21.3706 30.9711 21.4023 31.007C21.4173 31.024 21.4665 31.0447 21.5116 31.053C21.5567 31.0613 22.1055 31.2612 22.7312 31.4973C23.7021 31.8635 23.865 31.9414 23.8428 32.0281C23.8286 32.084 23.8337 32.1191 23.8542 32.1061C23.8747 32.0931 23.9845 32.3891 24.0981 32.7639C24.2117 33.1386 24.4238 33.8358 24.5693 34.3131C24.9372 35.5198 25.2687 36.6138 25.6634 37.9242C26.4164 40.4243 26.4102 40.4083 26.6987 40.5744C27.0487 40.7759 27.2931 40.7287 27.7367 40.3738C28.0028 40.161 29.489 38.9229 30.635 37.9593C31.3592 37.3505 31.5353 37.2592 31.9229 37.2921C32.2462 37.3196 32.1946 37.2861 34.1075 38.7084C34.8588 39.2671 35.7933 39.9603 36.184 40.2488C36.5747 40.5373 36.9067 40.79 36.9217 40.8105C36.9367 40.831 37.1217 40.971 37.3328 41.1215C38.1396 41.6972 38.3972 41.8948 38.3972 41.9383C38.3972 41.963 38.4217 41.9832 38.4518 41.9832C38.4819 41.9832 38.5516 42.0274 38.6069 42.0812C38.6621 42.1351 38.7542 42.207 38.8114 42.2411C38.8987 42.2929 38.9041 42.317 38.8445 42.3905C38.7843 42.4648 38.7885 42.4756 38.8722 42.4612C38.9265 42.4518 38.9644 42.415 38.9565 42.3793C38.946 42.332 38.971 42.3302 39.0485 42.3727C39.3404 42.5328 39.8772 42.368 40.0439 42.0672C40.1308 41.9104 40.3278 41.0084 40.9369 37.9802C41.2264 36.5406 41.3364 36.0066 41.594 34.789C41.6982 34.2963 41.7933 33.8154 41.8054 33.7203C41.8554 33.3262 42.1908 31.8202 42.2325 31.8029C42.2574 31.7926 42.2639 31.7613 42.2471 31.7334C42.2189 31.6867 42.4054 30.7152 42.9877 27.8746C43.1108 27.2742 43.3709 25.9893 43.5657 25.0193C43.7605 24.0493 43.9353 23.2179 43.9541 23.1717C43.9729 23.1256 43.9843 23.0683 43.9793 23.0446C43.9743 23.0208 44.0067 22.8318 44.0512 22.6247C44.4088 20.9604 44.9 18.4233 44.9 18.2401C44.9 18.1165 44.8641 17.9443 44.8202 17.8573C44.7763 17.7704 44.7579 17.6814 44.7792 17.6595C44.8005 17.6376 44.7934 17.6257 44.7634 17.633C44.7333 17.6404 44.6173 17.6047 44.5056 17.5537C44.3073 17.4633 44.0263 17.4398 43.8617 17.4998ZM38.7563 22.6547C38.9225 22.7713 38.8766 22.891 38.536 23.2297C38.3452 23.4195 38.1767 23.5746 38.1616 23.5744C38.1464 23.5742 37.9289 23.78 37.6782 24.0318C37.2765 24.4351 36.4192 25.259 35.7371 25.8974C35.6115 26.0149 34.595 26.9802 33.4781 28.0426C32.3612 29.1049 31.4251 29.9678 31.3976 29.9601C31.3702 29.9524 31.354 29.9676 31.3615 29.9939C31.3734 30.0355 30.4644 30.9567 30.3716 30.997C30.3525 31.0053 30.0816 31.263 29.7695 31.5696C29.4574 31.8761 29.177 32.1111 29.1463 32.0916C29.1156 32.0722 29.1052 32.0808 29.1233 32.1107C29.1413 32.1406 28.9459 32.3632 28.6889 32.6054C27.8908 33.3578 27.8073 33.5683 27.574 35.4158C27.4815 36.1488 27.3914 36.7863 27.374 36.8325C27.3565 36.8787 27.3353 36.9517 27.3267 36.9948C27.2931 37.1657 26.986 37.2315 26.873 37.092C26.8162 37.0219 26.4929 35.93 26.1827 34.761C26.1133 34.4992 25.9804 34.0228 25.8875 33.7024C25.7945 33.3818 25.7307 33.1071 25.7457 33.0917C25.7607 33.0763 25.7509 33.0362 25.7239 33.0025C25.6366 32.8939 25.3914 31.9453 25.3914 31.7161C25.3914 31.4709 25.4961 31.1218 25.5696 31.1218C25.5954 31.1218 25.6025 31.0988 25.5856 31.0706C25.5446 31.0026 25.8245 30.6647 25.8882 30.7051C25.9156 30.7224 25.9379 30.7125 25.9379 30.6831C25.9379 30.6536 26.1285 30.5095 26.3614 30.3627C26.5943 30.2159 27.0932 29.8983 27.4701 29.657C27.847 29.4157 28.183 29.2183 28.2169 29.2183C28.2508 29.2183 28.2867 29.1979 28.2968 29.1729C28.3201 29.1149 29.3259 28.4788 29.3259 28.5221C29.3259 28.5399 29.3664 28.513 29.4158 28.4624C29.5338 28.3415 30.1056 28.011 30.1633 28.0303C30.1882 28.0386 30.1956 28.0242 30.18 27.9982C30.1393 27.9308 30.4613 27.7483 30.5367 27.7961C30.5757 27.8208 30.5848 27.8113 30.5607 27.7713C30.5088 27.6852 30.596 27.6887 30.6922 27.7766C30.7576 27.8363 30.7579 27.832 30.695 27.7469C30.6292 27.6579 30.6397 27.64 30.7933 27.5807C30.8879 27.5441 30.9653 27.4905 30.9653 27.4618C30.9653 27.4329 31.0202 27.4573 31.0873 27.516C31.1926 27.6081 31.1989 27.6089 31.1334 27.5223C31.0888 27.4635 31.0779 27.4032 31.107 27.3766C31.2482 27.2476 32.1605 26.7104 32.189 26.7395C32.2073 26.7582 32.2222 26.7479 32.2222 26.7165C32.2222 26.628 33.5809 25.7919 33.6518 25.8367C33.6905 25.8612 33.6996 25.8516 33.6755 25.8118C33.6371 25.7482 33.6994 25.7251 33.8616 25.7428C33.9271 25.75 33.929 25.7417 33.8708 25.7014C33.8182 25.6649 33.9237 25.5755 34.2534 25.3774C34.5037 25.2268 34.7241 25.1089 34.743 25.1153C34.762 25.1216 34.8211 25.0774 34.8745 25.0171C34.9278 24.9567 34.9938 24.9073 35.0212 24.9073C35.0486 24.9073 35.1493 24.8469 35.245 24.773C35.5309 24.5523 36.4345 24.0137 36.3989 24.0852C36.3807 24.1217 36.4109 24.0964 36.4661 24.029C36.5213 23.9615 36.6014 23.8986 36.644 23.889C36.6865 23.8794 36.7636 23.8304 36.8152 23.7801C36.8669 23.7298 37.0622 23.5967 37.2492 23.4843C37.5366 23.3118 37.6033 23.2912 37.6791 23.3519C37.7587 23.4157 37.7605 23.4129 37.6948 23.3271C37.6297 23.2419 37.6394 23.2222 37.7768 23.1603C37.8626 23.1216 37.945 23.0756 37.96 23.0578C38.0004 23.0102 38.6348 22.6117 38.6687 22.6127C38.6846 22.6132 38.7241 22.6321 38.7563 22.6547Z" fill="white"/>
</svg>

<svg width="61" height="60" fill="none" xmlns="http://www.w3.org/2000/svg"><rect x=".933" width="59.933" height="59.933" rx="29.967" fill="#000"/><path fill-rule="evenodd" clip-rule="evenodd" d="M43.862 17.5c-.045.016-.424.166-.841.333-.418.167-.771.29-.785.276-.015-.015-.064.011-.11.058-.044.046-.114.072-.153.056-.04-.015-.08-.009-.089.015-.018.045-.524.254-2.394.987-.646.253-1.86.731-2.697 1.062-.837.33-1.55.606-1.584.612a.74.74 0 0 0-.173.071c-.234.13-.913.353-.969.318-.037-.024-.042-.01-.014.037.033.054.02.064-.049.037-.051-.02-.08-.014-.064.013.016.026-.013.061-.065.077a44.56 44.56 0 0 0-1.103.423c-.554.217-1.027.382-1.052.367-.024-.016-.044-.004-.044.025 0 .067-.323.187-.39.145-.026-.017-.047-.008-.047.02s-.437.222-.97.431c-.534.21-1.118.442-1.298.517-.18.074-.488.195-.683.268-.196.072-.54.206-.765.297-1.155.467-3.15 1.245-3.223 1.257-.046.007-.096.028-.11.047-.016.018-.299.14-.63.27-.33.13-.908.36-1.283.51-.376.15-1.114.44-1.64.645-.526.204-1.268.497-1.65.651-.4.161-.724.262-.765.238-.04-.023-.053-.021-.03.004.023.026-.183.141-.457.257-.5.211-.759.395-.759.54 0 .042-.02.065-.043.05-.09-.057.02.613.126.76.144.2.286.272 1.298.651.474.178.843.345.82.371-.023.027-.014.031.022.01.054-.032 1.286.399 1.461.51a.41.41 0 0 0 .126.05c.099.015.585.205.616.241a.236.236 0 0 0 .11.046c.045.008.593.208 1.22.444.97.366 1.133.444 1.11.531-.013.056-.008.091.012.078.02-.013.13.283.244.658l.471 1.55c.368 1.206.7 2.3 1.094 3.61.753 2.5.747 2.484 1.036 2.65.35.202.594.155 1.038-.2.266-.213 1.752-1.451 2.898-2.415.724-.609.9-.7 1.288-.667.323.028.272-.006 2.185 1.416.75.56 1.685 1.252 2.076 1.54.39.29.723.542.738.563.015.02.2.16.41.31.808.576 1.065.774 1.065.817 0 .025.025.045.055.045s.1.044.155.098c.055.054.147.126.204.16.088.052.093.076.033.15s-.056.085.028.07c.054-.01.092-.046.084-.082-.01-.047.015-.049.092-.006.292.16.83-.005.996-.306.087-.157.284-1.059.893-4.087.29-1.44.4-1.973.657-3.191.104-.493.2-.974.211-1.069.05-.394.386-1.9.428-1.917.024-.01.03-.042.014-.07-.028-.046.158-1.018.74-3.858.124-.6.384-1.886.579-2.856.194-.97.37-1.801.388-1.847a.291.291 0 0 0 .025-.127 3.017 3.017 0 0 1 .072-.42c.358-1.665.849-4.202.849-4.385 0-.123-.036-.296-.08-.383-.044-.087-.062-.176-.04-.197.02-.022.013-.034-.017-.027-.03.007-.146-.028-.257-.08-.199-.09-.48-.113-.644-.053Zm-5.106 5.155c.166.116.12.236-.22.575-.19.19-.36.345-.374.344-.016 0-.233.206-.484.458a96.43 96.43 0 0 1-1.94 1.865c-.127.118-1.143 1.083-2.26 2.146-1.117 1.062-2.053 1.925-2.08 1.917-.028-.008-.044.008-.037.034.012.041-.897.963-.99 1.003-.018.008-.29.266-.601.573-.313.306-.593.541-.624.522-.03-.02-.04-.011-.023.019.018.03-.177.252-.434.494-.798.753-.882.963-1.115 2.81-.093.734-.183 1.371-.2 1.418a1.216 1.216 0 0 0-.047.162c-.034.17-.341.236-.454.097-.057-.07-.38-1.162-.69-2.331-.07-.262-.203-.738-.296-1.059-.093-.32-.156-.595-.141-.61.015-.016.005-.056-.022-.09-.087-.108-.333-1.057-.333-1.286 0-.245.105-.594.179-.594.025 0 .032-.023.016-.051-.041-.068.239-.406.302-.366.028.017.05.008.05-.022s.19-.174.423-.32c.233-.147.732-.465 1.11-.706.376-.241.712-.439.746-.439.034 0 .07-.02.08-.045.023-.058 1.029-.694 1.029-.65 0 .017.04-.01.09-.06.118-.122.69-.452.747-.433.025.009.033-.006.017-.032-.04-.067.281-.25.357-.202.039.025.048.015.024-.025-.052-.086.035-.082.131.006.066.06.066.055.003-.03-.066-.09-.055-.107.098-.166.095-.037.172-.09.172-.12 0-.028.055-.004.122.055.106.092.112.093.046.006-.044-.058-.055-.119-.026-.145.141-.13 1.053-.667 1.082-.637.018.018.033.008.033-.023 0-.089 1.359-.925 1.43-.88.038.024.048.015.023-.025-.038-.064.024-.087.187-.07.065.008.067 0 .009-.04-.053-.037.053-.127.382-.325.25-.15.471-.268.49-.262.019.007.078-.038.131-.098.054-.06.12-.11.147-.11.028 0 .128-.06.224-.134.286-.22 1.19-.76 1.154-.688-.018.037.012.011.067-.056a.45.45 0 0 1 .178-.14.466.466 0 0 0 .171-.109c.052-.05.247-.183.434-.296.288-.172.354-.193.43-.132.08.064.081.06.016-.025-.065-.085-.056-.105.082-.167a.844.844 0 0 0 .183-.102c.04-.048.675-.446.709-.445.016 0 .055.02.087.042Z" fill="#fff"/></svg>
